public/files/perm/idevices/base/map/edition/exequextlive.svg

<svg enable-background="new 0 0 512 512" height="512" viewBox="0 0 512 512" width="512" xmlns="http://www.w3.org/2000/svg"><g fill="#f00"><path d="m256 481c-3.53 0-7.046-1.23-9.873-3.706-21.826-19.087-42.583-36.782-62.109-53.423-110.201-93.911-184.018-155.962-184.018-246.357 0-83.526 59.037-146.514 136-146.514 60.659 0 99.595 42.378 120 80.537 20.405-38.159 59.341-80.537 120-80.537 76.963 0 136 62.988 136 146.514 0 90.396-73.817 152.446-184.018 246.357-19.526 16.641-40.283 34.336-62.109 53.423-2.827 2.476-6.343 3.706-9.873 3.706z"/><path d="m265.873 477.294c21.826-19.087 42.583-36.782 62.109-53.423 110.201-93.911 184.018-155.962 184.018-246.357 0-83.526-59.037-146.514-136-146.514-60.659 0-99.595 42.378-120 80.537v369.463c3.53 0 7.046-1.23 9.873-3.706z"/></g></svg>

<?xml version="1.0" encoding="UTF-8" standalone="no"?>
<svg
   xmlns:dc="http://purl.org/dc/elements/1.1/"
   xmlns:cc="http://creativecommons.org/ns#"
   xmlns:rdf="http://www.w3.org/1999/02/22-rdf-syntax-ns#"
   xmlns:svg="http://www.w3.org/2000/svg"
   xmlns="http://www.w3.org/2000/svg"
   xmlns:sodipodi="http://sodipodi.sourceforge.net/DTD/sodipodi-0.dtd"
   xmlns:inkscape="http://www.inkscape.org/namespaces/inkscape"
   version="1.1"
   width="512"
   height="512"
   x="0"
   y="0"
   viewBox="0 0 512 512"
   style="enable-background:new 0 0 512 512"
   xml:space="preserve"
   class=""
   id="svg38"
   sodipodi:docname="exequextlive.svg"
   inkscape:version="0.92.3 (2405546, 2018-03-11)"><metadata
     id="metadata44"><rdf:RDF><cc:Work
         rdf:about=""><dc:format>image/svg+xml</dc:format><dc:type
           rdf:resource="http://purl.org/dc/dcmitype/StillImage" /></cc:Work></rdf:RDF></metadata><defs
     id="defs42" /><sodipodi:namedview
     pagecolor="#ffffff"
     bordercolor="#666666"
     borderopacity="1"
     objecttolerance="10"
     gridtolerance="10"
     guidetolerance="10"
     inkscape:pageopacity="0"
     inkscape:pageshadow="2"
     inkscape:window-width="816"
     inkscape:window-height="480"
     id="namedview40"
     showgrid="false"
     inkscape:zoom="0.4609375"
     inkscape:cx="147.52542"
     inkscape:cy="256"
     inkscape:window-x="462"
     inkscape:window-y="187"
     inkscape:window-maximized="0"
     inkscape:current-layer="svg38" /><g
     id="g36">
<path
   style="fill:#ff0000;fill-opacity:1"
   d="M256,481c-3.53,0-7.046-1.23-9.873-3.706c-21.826-19.087-42.583-36.782-62.109-53.423  C73.817,329.96,0,267.909,0,177.514C0,93.988,59.037,31,136,31c60.659,0,99.595,42.378,120,80.537C276.405,73.378,315.341,31,376,31  c76.963,0,136,62.988,136,146.514c0,90.396-73.817,152.446-184.018,246.357c-19.526,16.641-40.283,34.336-62.109,53.423  C263.046,479.77,259.53,481,256,481z"
   fill="#fd2ca9"
   data-original="#fd3018"
   class=""
   id="path2" />
<path
   style="fill:#ff0000;fill-opacity:1"
   d="M265.873,477.294c21.826-19.087,42.583-36.782,62.109-53.423C438.183,329.96,512,267.909,512,177.514  C512,93.988,452.963,31,376,31c-60.659,0-99.595,42.378-120,80.537V481C259.53,481,263.046,479.77,265.873,477.294z"
   fill="#fd2ca9"
   data-original="#e61e14"
   class=""
   id="path4" />
<g
   id="g6">
</g>
<g
   id="g8">
</g>
<g
   id="g10">
</g>
<g
   id="g12">
</g>
<g
   id="g14">
</g>
<g
   id="g16">
</g>
<g
   id="g18">
</g>
<g
   id="g20">
</g>
<g
   id="g22">
</g>
<g
   id="g24">
</g>
<g
   id="g26">
</g>
<g
   id="g28">
</g>
<g
   id="g30">
</g>
<g
   id="g32">
</g>
<g
   id="g34">
</g>
</g></svg>
